dist/assets/icons/icon-docx.svg

<svg width="18" height="20" viewBox="0 0 18 20" fill="none" xmlns="http://www.w3.org/2000/svg">
<g clip-path="url(#clip0_728_285)">
<path d="M3.61268 0C3.31771 0 3.03482 0.117177 2.82624 0.325753C2.61767 0.53433 2.50049 0.817221 2.50049 1.11219V18.8892C2.50049 19.1842 2.61767 19.4671 2.82624 19.6756C3.03482 19.8842 3.31771 20.0014 3.61268 20.0014H16.3904C16.6854 20.0014 16.9683 19.8842 17.1768 19.6756C17.3854 19.4671 17.5026 19.1842 17.5026 18.8892V5.14528L12.1467 0.00139001L3.61268 0Z" fill="#4285F4"/>
<path d="M5.6001 14.9712H14.4001V14.057H5.6001V14.9712ZM5.6001 16.7998H12.2001V15.8855H5.6001V16.7998ZM5.6001 10.3998V11.3141H14.4001V10.3998H5.6001ZM5.6001 13.1427H14.4001V12.2284H5.6001V13.1427Z" fill="white"/>
<path d="M17.5011 5.14535H13.2567C12.9618 5.14535 12.6789 5.02818 12.4703 4.8196C12.2617 4.61102 12.1445 4.32813 12.1445 4.03316V0.00146484L17.5011 5.14535Z" fill="#A1C2FA"/>
<path d="M11.9262 12.3716C11.9262 12.7118 11.7911 13.038 11.5505 13.2785C11.31 13.519 10.9838 13.6541 10.6437 13.6541H1.2825C0.942357 13.6541 0.616149 13.519 0.375634 13.2785C0.13512 13.038 0 12.7118 0 12.3716V8.45461C0.000368534 8.11477 0.135673 7.789 0.376168 7.54889C0.616663 7.30879 0.942662 7.17401 1.2825 7.1742H10.6416C10.81 7.17383 10.9769 7.20667 11.1327 7.27084C11.2884 7.335 11.43 7.42924 11.5493 7.54815C11.6686 7.66707 11.7633 7.80833 11.8279 7.96387C11.8926 8.11941 11.926 8.28616 11.9262 8.45461V12.3716Z" fill="#2260C7"/>
<path d="M1.2714 9.24396H1.95957C2.11468 9.24126 2.26952 9.25808 2.42043 9.29401C2.54951 9.32744 2.66869 9.39132 2.76799 9.4803C3.04002 9.71201 3.1758 10.0654 3.17533 10.5404C3.17646 10.6841 3.16271 10.8276 3.13432 10.9686C3.10934 11.0899 3.06696 11.2069 3.0085 11.3161C2.95111 11.4201 2.87715 11.514 2.78954 11.5942C2.72117 11.656 2.64383 11.7071 2.56015 11.7457C2.47491 11.7842 2.3849 11.811 2.29253 11.8256C2.18579 11.8418 2.07794 11.8494 1.96999 11.8486H1.28182C1.20703 11.853 1.13235 11.8382 1.06495 11.8055C1.04176 11.7922 1.02142 11.7746 1.00507 11.7534C0.988733 11.7323 0.976717 11.7082 0.969716 11.6824C0.952706 11.6143 0.94522 11.5441 0.947472 11.4739V9.56789C0.939318 9.52363 0.942031 9.47805 0.955379 9.43506C0.968726 9.39208 0.992308 9.35298 1.0241 9.32112C1.05589 9.28926 1.09494 9.2656 1.13789 9.25216C1.18085 9.23872 1.22642 9.23591 1.2707 9.24396H1.2714ZM1.47576 9.66104V11.4301H1.87615C1.96374 11.4301 2.03255 11.4301 2.08469 11.4232C2.13741 11.4179 2.18926 11.406 2.23901 11.3877C2.28997 11.3701 2.33714 11.3429 2.37803 11.3078C2.55459 11.1581 2.64287 10.9007 2.64287 10.5355C2.64287 10.2783 2.60394 10.0864 2.52609 9.95785C2.46467 9.84301 2.36213 9.75562 2.23901 9.71317C2.1049 9.67568 1.96601 9.65811 1.8268 9.66104H1.47576Z" fill="white"/>
<path d="M4.78678 9.19943C5.02888 9.19285 5.2685 9.24964 5.4819 9.36417C5.67302 9.47115 5.82644 9.63453 5.92122 9.83198C6.02523 10.0546 6.07637 10.2982 6.07067 10.5438C6.07297 10.73 6.04551 10.9154 5.98934 11.0929C5.93804 11.2513 5.85449 11.3973 5.74396 11.5218C5.6328 11.6437 5.49542 11.7388 5.34218 11.7999C5.16786 11.8665 4.98239 11.899 4.79582 11.8958C4.60876 11.8989 4.42291 11.8654 4.24876 11.7971C4.09476 11.7363 3.95665 11.6412 3.84489 11.519C3.73386 11.3938 3.6507 11.2464 3.6009 11.0867C3.5443 10.9104 3.51637 10.7262 3.51818 10.541C3.51598 10.3537 3.54511 10.1674 3.60438 9.98978C3.65626 9.83138 3.74134 9.68588 3.85393 9.56297C3.96484 9.4444 4.10096 9.35224 4.25223 9.29327C4.42277 9.22808 4.60423 9.19622 4.78678 9.19943ZM5.53681 10.5403C5.54086 10.3703 5.50961 10.2013 5.44506 10.044C5.39112 9.91404 5.29901 9.80351 5.18091 9.72702C5.06263 9.65395 4.92578 9.61655 4.78678 9.61928C4.68616 9.61817 4.58644 9.6383 4.49413 9.67836C4.40503 9.71806 4.32612 9.77748 4.26335 9.85214C4.1931 9.93756 4.14106 10.0364 4.11043 10.1427C4.07102 10.2715 4.05202 10.4056 4.05412 10.5403C4.05208 10.6763 4.07108 10.8119 4.11043 10.9421C4.14187 11.0513 4.19559 11.1529 4.26822 11.2403C4.33237 11.3151 4.41239 11.3747 4.50247 11.4148C4.58701 11.4536 4.67845 11.4752 4.77143 11.4784C4.86442 11.4815 4.9571 11.4661 5.04407 11.433C5.13103 11.4 5.21054 11.3499 5.27796 11.2858C5.34537 11.2217 5.39934 11.1448 5.43672 11.0596C5.50773 10.8959 5.54191 10.7186 5.53681 10.5403Z" fill="white"/>
<path d="M8.74442 11.0271C8.74197 11.1199 8.72118 11.2113 8.68325 11.2961C8.63629 11.4018 8.57085 11.4983 8.49001 11.5811C8.395 11.6791 8.28067 11.7563 8.15426 11.8077C8.00285 11.8687 7.84061 11.8983 7.67741 11.8946C7.55144 11.896 7.42572 11.883 7.30274 11.8557C7.1946 11.8314 7.09092 11.7904 6.9955 11.734C6.90003 11.6756 6.81459 11.6021 6.74248 11.5165C6.67243 11.4315 6.61334 11.3381 6.56661 11.2384C6.51721 11.135 6.48034 11.026 6.45678 10.9138C6.43203 10.7933 6.41992 10.6705 6.42064 10.5475C6.41743 10.3556 6.44827 10.1648 6.5117 9.98371C6.5683 9.82496 6.65785 9.67999 6.77445 9.5583C6.88703 9.44104 7.02328 9.3491 7.17415 9.28859C7.32887 9.22671 7.49409 9.19531 7.66073 9.19614C7.85605 9.19273 8.04934 9.2361 8.22447 9.32265C8.37406 9.39434 8.50387 9.50148 8.60262 9.63476C8.68202 9.73522 8.72818 9.85791 8.73469 9.9858C8.73501 10.0454 8.71207 10.1028 8.67074 10.1457C8.65122 10.1675 8.62734 10.185 8.60063 10.1969C8.57392 10.2089 8.545 10.2151 8.51573 10.2152C8.46086 10.2198 8.40639 10.2026 8.36419 10.1672C8.31834 10.1181 8.28014 10.0623 8.25089 10.0018C8.19454 9.88704 8.11131 9.7876 8.00829 9.71192C7.90518 9.64468 7.78373 9.61116 7.66073 9.61599C7.56087 9.61273 7.46168 9.63343 7.37146 9.67636C7.28124 9.71929 7.20262 9.78321 7.14217 9.86276C7.01334 10.0277 6.94916 10.262 6.94962 10.5655C6.9441 10.7379 6.97293 10.9097 7.03443 11.0709C7.08208 11.1939 7.16656 11.2993 7.27633 11.3726C7.38622 11.4405 7.51349 11.475 7.64266 11.472C7.77973 11.4763 7.91462 11.4369 8.02775 11.3594C8.13862 11.2755 8.22131 11.1598 8.26479 11.0278C8.2832 10.9675 8.31138 10.9107 8.3482 10.8596C8.36785 10.8369 8.39258 10.8193 8.42037 10.808C8.44816 10.7968 8.47822 10.7923 8.50808 10.7949C8.53808 10.7944 8.56787 10.7999 8.5957 10.8111C8.62352 10.8224 8.6488 10.8391 8.67004 10.8603C8.69376 10.881 8.71268 10.9067 8.72552 10.9355C8.73836 10.9643 8.74481 10.9956 8.74442 11.0271Z" fill="white"/>
<path d="M9.1235 11.3452L9.70601 10.4937L9.21526 9.73461C9.1763 9.67412 9.14169 9.61093 9.11168 9.54554C9.08975 9.49773 9.07792 9.4459 9.07693 9.39331C9.07801 9.36722 9.08479 9.3417 9.0968 9.31852C9.10881 9.29534 9.12575 9.27507 9.14644 9.25915C9.1912 9.21954 9.24935 9.19842 9.3091 9.20006C9.34055 9.1982 9.37203 9.20299 9.4015 9.21413C9.43097 9.22527 9.45775 9.24251 9.4801 9.26471C9.54396 9.33986 9.60095 9.42059 9.6504 9.50592L10.0411 10.1385L10.4581 9.50592L10.5464 9.36689C10.5671 9.3336 10.5903 9.30198 10.6159 9.27236C10.6373 9.249 10.663 9.2301 10.6917 9.21675C10.7222 9.20368 10.7551 9.19728 10.7883 9.19798C10.8185 9.19662 10.8487 9.20141 10.877 9.21204C10.9053 9.22267 10.9312 9.23894 10.9531 9.25984C10.9728 9.27726 10.9886 9.29865 10.9995 9.3226C11.0104 9.34656 11.0162 9.37255 11.0163 9.39887C11.0163 9.47811 10.97 9.58585 10.8773 9.7221L10.3636 10.4867L10.9197 11.3383C10.9602 11.3976 10.9962 11.4598 11.0274 11.5245C11.0489 11.5678 11.0606 11.6153 11.0615 11.6636C11.0617 11.7033 11.0514 11.7424 11.0316 11.7769C11.0113 11.8116 10.9817 11.8401 10.9461 11.8589C10.9078 11.8793 10.865 11.8896 10.8217 11.8888C10.7774 11.8903 10.7336 11.8794 10.6952 11.8575C10.6624 11.8378 10.634 11.8115 10.6118 11.7803C10.5902 11.7498 10.5513 11.69 10.4929 11.601L10.0341 10.8795L9.54752 11.6226L9.46689 11.747C9.44947 11.7718 9.42993 11.7951 9.4085 11.8165C9.38548 11.8392 9.35835 11.8574 9.32856 11.87C9.29399 11.8834 9.25718 11.89 9.22012 11.8895C9.18975 11.8917 9.15926 11.8872 9.1308 11.8763C9.10235 11.8655 9.07661 11.8485 9.05541 11.8267C9.03421 11.8048 9.01805 11.7786 9.00808 11.7498C8.99811 11.721 8.99456 11.6904 8.99768 11.6601C9.00944 11.5455 9.05302 11.4364 9.1235 11.3452Z" fill="white"/>
</g>
<defs>
<clipPath id="clip0_728_285">
<rect width="17.501" height="20" fill="white"/>
</clipPath>
</defs>
</svg>

<svg width="18" height="20" fill="none" xmlns="http://www.w3.org/2000/svg"><g clip-path="url(#clip0_728_285)"><path d="M3.613 0A1.112 1.112 0 002.5 1.112V18.89a1.112 1.112 0 001.113 1.112H16.39a1.112 1.112 0 001.113-1.112V5.145L12.147.001 3.613 0z" fill="#4285F4"/><path d="M5.6 14.971h8.8v-.914H5.6v.914zm0 1.829h6.6v-.915H5.6v.915zm0-6.4v.914h8.8V10.4H5.6zm0 2.743h8.8v-.915H5.6v.915z" fill="#fff"/><path d="M17.501 5.145h-4.244a1.112 1.112 0 01-1.112-1.112V.001L17.5 5.145z" fill="#A1C2FA"/><path d="M11.926 12.372a1.282 1.282 0 01-1.282 1.282H1.283A1.283 1.283 0 010 12.372V8.455a1.282 1.282 0 011.282-1.28h9.36a1.282 1.282 0 011.284 1.28v3.917z" fill="#2260C7"/><path d="M1.271 9.244h.689c.155-.003.31.014.46.05.13.033.249.097.348.186.272.232.408.585.407 1.06.001.144-.012.288-.04.429a1.286 1.286 0 01-.126.347 1.093 1.093 0 01-.22.278.911.911 0 01-.229.152 1.047 1.047 0 01-.267.08 2.048 2.048 0 01-.323.023h-.688a.438.438 0 01-.217-.043.203.203 0 01-.095-.124.76.76 0 01-.023-.208V9.568a.278.278 0 01.324-.324zm.205.417v1.77h.4c.088 0 .157 0 .209-.008a.63.63 0 00.154-.035.428.428 0 00.139-.08c.177-.15.265-.407.265-.772 0-.258-.04-.45-.117-.578a.516.516 0 00-.287-.245 1.42 1.42 0 00-.412-.052h-.351zM4.787 9.2c.242-.007.482.05.695.164.191.107.344.27.44.468.103.223.154.466.149.712.002.186-.025.371-.082.549a1.205 1.205 0 01-.245.429 1.09 1.09 0 01-.402.278c-.174.066-.36.099-.546.096a1.433 1.433 0 01-.547-.099 1.09 1.09 0 01-.648-.71 1.73 1.73 0 01-.083-.546 1.68 1.68 0 01.086-.551c.052-.159.137-.304.25-.427.11-.119.247-.21.398-.27.17-.065.352-.097.535-.094zm.75 1.34a1.23 1.23 0 00-.092-.496.695.695 0 00-.264-.317.723.723 0 00-.394-.108.715.715 0 00-.293.06.633.633 0 00-.23.173.81.81 0 00-.154.29 1.29 1.29 0 00-.056.398 1.32 1.32 0 00.056.402.84.84 0 00.158.298.703.703 0 001.168-.18c.072-.164.106-.341.1-.52zm3.207.487a.704.704 0 01-.06.27.974.974 0 01-.53.51 1.196 1.196 0 01-.477.088 1.645 1.645 0 01-.374-.04 1.06 1.06 0 01-.308-.121 1.042 1.042 0 01-.253-.217 1.44 1.44 0 01-.286-.603 1.77 1.77 0 01-.035-.367 1.623 1.623 0 01.09-.563 1.17 1.17 0 01.663-.696c.155-.061.32-.093.487-.092.195-.003.388.04.563.127.15.071.28.178.379.312.079.1.125.223.132.35a.23.23 0 01-.064.16.208.208 0 01-.155.07.209.209 0 01-.152-.048.67.67 0 01-.113-.165.794.794 0 00-.243-.29.594.594 0 00-.347-.096.626.626 0 00-.519.247c-.129.165-.193.399-.192.703a1.3 1.3 0 00.084.505.641.641 0 00.242.302c.11.068.237.102.367.099a.646.646 0 00.385-.113c.11-.084.193-.2.237-.331a.575.575 0 01.083-.168.19.19 0 01.16-.065.225.225 0 01.162.065.217.217 0 01.074.167zm.379.318l.583-.851-.49-.76a1.52 1.52 0 01-.104-.188.382.382 0 01-.035-.153.179.179 0 01.07-.134.236.236 0 01.162-.059.224.224 0 01.171.065c.064.075.12.156.17.24l.391.633.417-.632.088-.14a.75.75 0 01.07-.094.24.24 0 01.076-.055.233.233 0 01.096-.019.224.224 0 01.211.125c.011.024.017.05.017.076 0 .08-.046.187-.139.323l-.513.765.556.851c.04.06.076.122.107.187.022.043.034.09.035.139a.216.216 0 01-.115.195.255.255 0 01-.125.03.24.24 0 01-.127-.031.278.278 0 01-.083-.078c-.022-.03-.06-.09-.12-.179l-.458-.722-.486.744-.081.124a.523.523 0 01-.059.07.256.256 0 01-.188.072.208.208 0 01-.222-.229.618.618 0 01.126-.315z" fill="#fff"/></g><defs><clipPath id="clip0_728_285"><path fill="#fff" d="M0 0h17.501v20H0z"/></clipPath></defs></svg>
